assets/icons/icon_speed.svg

<svg width="30" height="30" viewBox="0 0 30 30" fill="none" xmlns="http://www.w3.org/2000/svg">
<g clip-path="url(#clip0_67_4568)">
<path fill-rule="evenodd" clip-rule="evenodd" d="M15.1135 27.9167C22.1845 27.9167 27.9166 22.1846 27.9166 15.1137C27.9166 8.04275 22.1845 2.31064 15.1135 2.31064C8.04263 2.31064 2.31052 8.04275 2.31052 15.1137C2.31052 22.1846 8.04263 27.9167 15.1135 27.9167ZM15.1135 29.8864C23.2723 29.8864 29.8863 23.2724 29.8863 15.1137C29.8863 6.95492 23.2723 0.340942 15.1135 0.340942C6.9548 0.340942 0.34082 6.95492 0.34082 15.1137C0.34082 23.2724 6.9548 29.8864 15.1135 29.8864Z" fill="white"/>
<path d="M21.8021 8.75489C21.8741 8.69639 21.9776 8.69796 22.0478 8.75853C22.118 8.8192 22.1347 8.92133 22.0874 9.0011L16.0241 19.2246C15.2893 20.4635 13.6132 20.7369 12.5228 19.7959C11.4322 18.8548 11.4575 17.1567 12.5756 16.2486L21.8021 8.75489Z" stroke="white" stroke-width="1.70455"/>
<path d="M15.791 5.265C15.791 4.72108 15.3501 4.28015 14.8061 4.28015C14.2622 4.28015 13.8213 4.72108 13.8213 5.265V7.2347C13.8213 7.77861 14.2622 8.21955 14.8061 8.21955C15.3501 8.21955 15.791 7.77861 15.791 7.2347V5.265Z" fill="white"/>
<path d="M24.6538 17.0833C25.1977 17.0833 25.6387 16.6424 25.6387 16.0985C25.6387 15.5546 25.1977 15.1136 24.6538 15.1136H22.6841C22.1402 15.1136 21.6993 15.5546 21.6993 16.0985C21.6993 16.6424 22.1402 17.0833 22.6841 17.0833H24.6538Z" fill="white"/>
<path d="M4.9575 17.0833C4.41359 17.0833 3.97266 16.6424 3.97266 16.0985C3.97266 15.5546 4.41359 15.1136 4.9575 15.1136L6.9272 15.1136C7.47112 15.1136 7.91205 15.5546 7.91205 16.0985C7.91205 16.6424 7.47112 17.0833 6.9272 17.0833L4.9575 17.0833Z" fill="white"/>
<path d="M6.40029 9.32392C6.01568 8.93931 6.01568 8.31574 6.40029 7.93113C6.78489 7.54653 7.40847 7.54653 7.79307 7.93113L9.18586 9.32392C9.57047 9.70853 9.57047 10.3321 9.18586 10.7167C8.80125 11.1013 8.17768 11.1013 7.79307 10.7167L6.40029 9.32392Z" fill="white"/>
</g>
<defs>
<clipPath id="clip0_67_4568">
<rect width="30" height="30" fill="white"/>
</clipPath>
</defs>
</svg>

<svg xmlns="http://www.w3.org/2000/svg" width="30" height="30" fill="none" viewBox="0 0 30 30"><g clip-path="url(#a)"><path fill="#fff" fill-rule="evenodd" d="M15.114 27.917c7.07 0 12.803-5.732 12.803-12.803S22.184 2.31 15.113 2.31c-7.07 0-12.802 5.732-12.802 12.803 0 7.07 5.732 12.803 12.803 12.803m0 1.97c8.158 0 14.772-6.615 14.772-14.773C29.886 6.954 23.272.34 15.114.34 6.954.34.34 6.955.34 15.114s6.614 14.772 14.773 14.772" clip-rule="evenodd"/><path stroke="#fff" stroke-width="1.705" d="M21.802 8.755a.191.191 0 0 1 .285.246l-6.063 10.224a2.314 2.314 0 1 1-3.448-2.976z"/><path fill="#fff" d="M15.791 5.265a.985.985 0 1 0-1.97 0v1.97a.985.985 0 1 0 1.97 0zM24.654 17.083a.985.985 0 1 0 0-1.97h-1.97a.985.985 0 0 0 0 1.97zM4.958 17.083a.985.985 0 1 1 0-1.97h1.97a.985.985 0 0 1 0 1.97zM6.4 9.324A.985.985 0 0 1 7.793 7.93l1.393 1.393a.985.985 0 1 1-1.393 1.393z"/></g><defs><clipPath id="a"><path fill="#fff" d="M0 0h30v30H0z"/></clipPath></defs></svg>
